Simply-Purple-Circles/scalable/apps/referencer.svg

<svg xmlns="http://www.w3.org/2000/svg" width="48" height="48" viewBox="0 0 12.7 12.7"><path fill="#963996" d="M6.344.073a6.29 6.29 0 0 0-6.29 6.29 6.29 6.29 0 0 0 6.29 6.288 6.29 6.29 0 0 0 6.29-6.289 6.29 6.29 0 0 0-6.29-6.29zm-.018.936a5.407 5.407 0 0 1 5.407 5.407 5.407 5.407 0 0 1-5.407 5.407A5.407 5.407 0 0 1 .92 6.416 5.407 5.407 0 0 1 6.326 1.01zm.033.64a2.294 2.294 0 1 0 0 4.588 2.294 2.294 0 0 0 0-4.589zm0 .124A2.17 2.17 0 0 1 8.523 3.95a2.17 2.17 0 0 1-2.164 2.177A2.17 2.17 0 0 1 4.195 3.95 2.17 2.17 0 0 1 6.36 1.773zm.026.395l-.241.027-.247.068.054-.02-.032-.055-.104.015-.049.05-.08.01-.072.035-.036.016-.008.011-.05.013-.032.064-.04-.082-.016.036.008.091-.065.055-.04.1h.08l.041-.091.104-.073.08.027.161.11.08-.073-.088-.037-.04-.081-.152-.019-.003-.015.064.011.04-.037.08-.018c.018-.009.038-.014.056-.02l-.047.046.185.127v.073l-.072.072.096.191.064-.036.08-.128a2.76 2.76 0 0 0 .33-.125l-.008.048.057.037.096-.064-.048-.055-.064.037-.025-.007.015-.006.097-.245-.209-.083zm-1.135.146l-.038.09-.079.015a2.021 2.021 0 0 0-.722 1.31 1.1 1.1 0 0 0 .07.116l.159.09.158.04.067.08.106.073.06-.008.045.02v.012l-.06.154-.045.065.015.032-.037.122.135.235.136.113.06.081-.007.17.045.097-.045.187s-.004-.001.002.018c.005.018.24.142.256.132l.028-.02-.015-.041.06-.057.023-.056.098-.033.075-.178-.023-.049.053-.073.113-.024.06-.13-.015-.161.09-.122.016-.121a23.71 23.71 0 0 1-.37-.178l-.06-.114-.113-.024-.06-.153-.15.016-.129-.09-.135.114v.018c-.041-.011-.092-.013-.128-.034l-.031-.081v-.09l-.09.008.022-.17h-.052l-.053.065-.053.024-.075-.04-.007-.09.015-.096.113-.081h.09l.015-.049.113.025.083.097.015-.162.144-.114.052-.121.106-.04.06-.082.136-.024.068-.097h-.204l.128-.057h.09l.128-.04.015-.049-.045-.04-.053-.017.016-.048-.038-.073-.09.032.01-.047h.014v-.064l-.08-.037-.065.046.013.009-.066.11.008.048-.083.032-.053.105-.023-.097-.143-.057-.023-.073.189-.105.083-.072.007-.09-.045-.024-.06-.008zm2.025.04l-.14.034-.089.059v.05l-.14.091.03.134.081-.058.052.058.059.033.037-.1-.022-.058.022-.042.081-.075h.037l-.037.084v.075c.034-.01.068-.013.103-.017l-.096.067-.007.042-.11.092-.111-.026v-.066l-.052.033.022.059h-.081l-.044.074-.055.063-.1.021.059.059.015.058h-.074l-.096.05v.15h.044l.041.046.092-.046.037-.091.066-.042.015-.034.11-.025.06.067.066.034-.037.074.06-.016.029-.076-.074-.083h.03l.073.059.015.083.066.075.015-.108.037-.017c.036.038.065.083.095.125l.112.008.066.042-.03.041-.066.059h-.096l-.126-.042-.066.009-.048.054-.136-.138-.096-.025-.14.017-.126.033c-.07.08-.14.16-.206.242l-.081.192.036.042-.066.1.074.175.188.213.092-.08.04.047.1-.063.033.038h.1l.058.064-.036.115.07.08-.003.137.052.1-.038.084a3.064 3.064 0 0 0-.007.183l.089.25.022.134v.067h.052l.08-.05h.096l.144-.163-.018-.054.096-.083-.07-.08.084-.07.082-.05.037-.043-.022-.091v-.234l.066-.142.08-.092.09-.217v-.058c-.043.005-.084.006-.126.01l.085-.085.121-.084.067-.075v-.083l-.044-.084-.06.067-.043-.05-.067-.05V3.53l.078.088.084-.013c.039.036.077.07.11.109l.056-.063c0-.066-.075-.393-.237-.67-.162-.277-.445-.53-.445-.53l-.022.036-.074.083-.096-.1h.096l.044-.05-.177-.033-.096-.033zm-.6.346v.054l.033.037v.081l-.016.11.088-.019.064-.063-.056-.055a1.619 1.619 0 0 0-.064-.145h-.048zm-.073.109l-.056.018.016.1.072-.037-.032-.081zm-.922.226l.025.127.048-.073-.073-.054zm1.934.538l.085.097.1.212.058.067-.03.075.055.061c-.025.002-.05.006-.076.006a2.884 2.884 0 0 1-.118-.3l-.063-.072-.033-.12.022-.026zM4.963 6.451c-.434.003-.857.196-1.178.377-.187.115-.202.163-.205.393l-.014 3.115c.002.105.034.223.144.163.034-.024.068-.046.102-.067 1.141-.7 2.1-.202 2.43.62l-.04-3.838c-.36-.579-.805-.766-1.239-.763zm2.773 0c-.433-.003-.877.184-1.239.763l-.038 3.838c.33-.822 1.288-1.32 2.429-.62l.103.067c.11.06.14-.058.142-.163L9.12 7.22c-.003-.23-.017-.278-.205-.393-.32-.181-.744-.374-1.178-.377z"/></svg>

<?xml version="1.0" encoding="UTF-8" standalone="no"?>
<svg
   xmlns:dc="http://purl.org/dc/elements/1.1/"
   xmlns:cc="http://creativecommons.org/ns#"
   xmlns:rdf="http://www.w3.org/1999/02/22-rdf-syntax-ns#"
   xmlns:svg="http://www.w3.org/2000/svg"
   xmlns="http://www.w3.org/2000/svg"
   xmlns:sodipodi="http://sodipodi.sourceforge.net/DTD/sodipodi-0.dtd"
   xmlns:inkscape="http://www.inkscape.org/namespaces/inkscape"
   width="48"
   height="48"
   viewBox="0 0 12.7 12.7"
   version="1.1"
   id="svg4"
   sodipodi:docname="referencer.svg"
   inkscape:version="0.92.4 (5da689c313, 2019-01-14)">
  <metadata
     id="metadata10">
    <rdf:RDF>
      <cc:Work
         rdf:about="">
        <dc:format>image/svg+xml</dc:format>
        <dc:type
           rdf:resource="http://purl.org/dc/dcmitype/StillImage" />
        <dc:title></dc:title>
      </cc:Work>
    </rdf:RDF>
  </metadata>
  <defs
     id="defs8" />
  <sodipodi:namedview
     pagecolor="#ffffff"
     bordercolor="#666666"
     borderopacity="1"
     objecttolerance="10"
     gridtolerance="10"
     guidetolerance="10"
     inkscape:pageopacity="0"
     inkscape:pageshadow="2"
     inkscape:window-width="1087"
     inkscape:window-height="480"
     id="namedview6"
     showgrid="false"
     inkscape:zoom="4.9166667"
     inkscape:cx="2.1355932"
     inkscape:cy="24"
     inkscape:window-x="0"
     inkscape:window-y="25"
     inkscape:window-maximized="0"
     inkscape:current-layer="svg4" />
  <path
     d="m 6.344,0.073 a 6.29,6.29 0 0 0 -6.29,6.29 6.29,6.29 0 0 0 6.29,6.288 6.29,6.29 0 0 0 6.29,-6.289 6.29,6.29 0 0 0 -6.29,-6.29 z M 6.326,1.009 A 5.407,5.407 0 0 1 11.733,6.416 5.407,5.407 0 0 1 6.326,11.823 5.407,5.407 0 0 1 0.92,6.416 5.407,5.407 0 0 1 6.326,1.01 Z m 0.033,0.64 a 2.294,2.294 0 1 0 0,4.588 2.2945,2.2945 0 0 0 0,-4.589 z m 0,0.124 A 2.17,2.17 0 0 1 8.523,3.95 2.17,2.17 0 0 1 6.359,6.127 2.17,2.17 0 0 1 4.195,3.95 2.17,2.17 0 0 1 6.36,1.773 Z M 6.385,2.168 6.144,2.195 5.897,2.263 5.951,2.243 5.919,2.188 5.815,2.203 5.766,2.253 5.686,2.263 5.614,2.298 5.578,2.314 5.57,2.325 5.52,2.338 5.488,2.402 5.448,2.32 5.432,2.356 5.44,2.447 5.375,2.502 l -0.04,0.1 h 0.08 L 5.456,2.511 5.56,2.438 5.64,2.465 5.801,2.575 5.881,2.502 5.793,2.465 5.753,2.384 5.601,2.365 5.598,2.35 5.662,2.361 5.702,2.324 5.782,2.306 C 5.8,2.297 5.82,2.292 5.838,2.286 L 5.791,2.332 5.976,2.459 V 2.532 L 5.904,2.604 6,2.795 6.064,2.759 6.144,2.631 A 2.76,2.76 0 0 0 6.474,2.506 L 6.466,2.554 6.523,2.591 6.619,2.527 6.571,2.472 6.507,2.509 6.482,2.502 6.497,2.496 6.594,2.251 Z M 5.25,2.314 5.212,2.404 5.133,2.419 a 2.021,2.021 0 0 0 -0.722,1.31 1.1,1.1 0 0 0 0.07,0.116 l 0.159,0.09 0.158,0.04 0.067,0.08 0.106,0.073 0.06,-0.008 0.045,0.02 V 4.152 L 5.016,4.306 4.971,4.371 4.986,4.403 4.949,4.525 5.084,4.76 5.22,4.873 5.28,4.954 5.273,5.124 5.318,5.221 5.273,5.408 c 0,0 -0.004,-0.001 0.002,0.018 0.005,0.018 0.24,0.142 0.256,0.132 L 5.559,5.538 5.544,5.497 5.604,5.44 5.627,5.384 5.725,5.351 5.8,5.173 5.777,5.124 5.83,5.051 5.943,5.027 6.003,4.897 5.988,4.736 6.078,4.614 6.094,4.493 A 23.71,23.71 0 0 1 5.724,4.315 L 5.664,4.201 5.551,4.177 5.491,4.024 5.341,4.04 5.212,3.95 5.077,4.064 V 4.082 C 5.036,4.071 4.985,4.069 4.949,4.048 L 4.918,3.967 V 3.877 L 4.828,3.885 4.85,3.715 H 4.798 L 4.745,3.78 4.692,3.804 4.617,3.764 4.61,3.674 4.625,3.578 4.738,3.497 h 0.09 L 4.843,3.448 4.956,3.473 5.039,3.57 5.054,3.408 5.198,3.294 5.25,3.173 5.356,3.133 5.416,3.051 5.552,3.027 5.62,2.93 H 5.416 L 5.544,2.873 h 0.09 L 5.762,2.833 5.777,2.784 5.732,2.744 5.679,2.727 5.695,2.679 5.657,2.606 5.567,2.638 5.577,2.591 H 5.591 V 2.527 L 5.511,2.49 5.446,2.536 5.459,2.545 5.393,2.655 5.401,2.703 5.318,2.735 5.265,2.84 5.242,2.743 5.099,2.686 5.076,2.613 5.265,2.508 5.348,2.436 5.355,2.346 5.31,2.322 Z m 2.025,0.04 -0.14,0.034 -0.089,0.059 v 0.05 L 6.906,2.588 6.936,2.722 7.017,2.664 7.069,2.722 7.128,2.755 7.165,2.655 7.143,2.597 7.165,2.555 7.246,2.48 H 7.283 L 7.246,2.564 V 2.639 C 7.28,2.629 7.314,2.626 7.349,2.622 L 7.253,2.689 7.246,2.731 7.136,2.823 7.025,2.797 V 2.731 L 6.973,2.764 6.995,2.823 H 6.914 L 6.87,2.897 6.815,2.96 6.715,2.981 6.774,3.04 6.789,3.098 H 6.715 l -0.096,0.05 v 0.15 H 6.663 L 6.704,3.344 6.796,3.298 6.833,3.207 6.899,3.165 6.914,3.131 7.024,3.106 7.084,3.173 7.15,3.207 7.113,3.281 7.173,3.265 7.202,3.189 7.128,3.106 h 0.03 L 7.231,3.165 7.246,3.248 7.312,3.323 7.327,3.215 7.364,3.198 C 7.4,3.236 7.429,3.281 7.459,3.323 L 7.571,3.331 7.637,3.373 7.607,3.414 7.541,3.473 H 7.445 L 7.319,3.431 7.253,3.44 7.205,3.494 7.069,3.356 6.973,3.331 6.833,3.348 6.707,3.381 c -0.07,0.08 -0.14,0.16 -0.206,0.242 l -0.081,0.192 0.036,0.042 -0.066,0.1 0.074,0.175 0.188,0.213 0.092,-0.08 0.04,0.047 0.1,-0.063 0.033,0.038 h 0.1 L 7.075,4.351 7.039,4.466 7.109,4.546 7.106,4.683 7.158,4.783 7.12,4.867 A 3.064,3.064 0 0 0 7.113,5.05 L 7.202,5.3 7.224,5.434 v 0.067 h 0.052 l 0.08,-0.05 H 7.452 L 7.596,5.288 7.578,5.234 7.674,5.151 7.604,5.071 7.688,5.001 7.77,4.951 7.807,4.908 7.785,4.817 V 4.583 L 7.851,4.441 7.931,4.349 8.021,4.132 V 4.074 C 7.978,4.079 7.937,4.08 7.895,4.084 L 7.98,3.999 8.101,3.915 8.168,3.84 V 3.757 L 8.124,3.673 8.064,3.74 8.021,3.69 7.954,3.64 V 3.53 L 8.032,3.618 8.116,3.605 c 0.039,0.036 0.077,0.07 0.11,0.109 L 8.282,3.651 C 8.282,3.585 8.207,3.258 8.045,2.981 7.883,2.704 7.6,2.451 7.6,2.451 L 7.578,2.487 7.504,2.57 7.408,2.47 H 7.504 L 7.548,2.42 7.371,2.387 Z M 6.675,2.7 V 2.754 L 6.708,2.791 V 2.872 L 6.692,2.982 6.78,2.963 6.844,2.9 6.788,2.845 A 1.619,1.619 0 0 0 6.724,2.7 H 6.676 Z M 6.602,2.809 6.546,2.827 6.562,2.927 6.634,2.89 Z M 5.68,3.035 5.705,3.162 5.753,3.089 Z m 1.934,0.538 0.085,0.097 0.1,0.212 0.058,0.067 -0.03,0.075 0.055,0.061 C 7.857,4.087 7.832,4.091 7.806,4.091 A 2.884,2.884 0 0 1 7.688,3.791 L 7.625,3.719 7.592,3.599 Z M 4.963,6.451 C 4.529,6.454 4.106,6.647 3.785,6.828 3.598,6.943 3.583,6.991 3.58,7.221 l -0.014,3.115 c 0.002,0.105 0.034,0.223 0.144,0.163 0.034,-0.024 0.068,-0.046 0.102,-0.067 1.141,-0.7 2.1,-0.202 2.43,0.62 L 6.202,7.214 C 5.842,6.635 5.397,6.448 4.963,6.451 Z m 2.773,0 C 7.303,6.448 6.859,6.635 6.497,7.214 l -0.038,3.838 c 0.33,-0.822 1.288,-1.32 2.429,-0.62 l 0.103,0.067 c 0.11,0.06 0.14,-0.058 0.142,-0.163 L 9.12,7.22 C 9.117,6.99 9.103,6.942 8.915,6.827 8.595,6.646 8.171,6.453 7.737,6.45 Z"
     id="path2"
     inkscape:connector-curvature="0"
     style="fill:#963996" />
</svg>
